resources/icons/16px/header-one.svg

<svg xmlns="http://www.w3.org/2000/svg" viewBox="0 0 16 16">
  <path d="M14.06 8c-.04.23-.12.44-.25.61s-.29.3-.48.41c-.18.11-.39.18-.62.23-.23.04-.46.07-.71.07v1.03h1.74V16H15V8zM7 2c-.56 0-1 .45-1 1v4H2V3c0-.55-.45-1-1-1-.56 0-1 .45-1 1v10c0 .55.45 1 1 1 .56 0 1-.45 1-1V9h4v4c0 .55.45 1 1 1 .56 0 1-.45 1-1V3c0-.54-.45-1-1-1"/>
</svg>

<svg width="16" height="16" viewBox="0 0 16 16" fill="none" xmlns="http://www.w3.org/2000/svg">
<path fill-rule="evenodd" clip-rule="evenodd" d="M14.06 8C14.02 8.23 13.94 8.44 13.81 8.61C13.68 8.78 13.52 8.91 13.33 9.02C13.15 9.13 12.94 9.2 12.71 9.25C12.48 9.29 12.25 9.32 12 9.32V10.35H13.74V16H15V8H14.06ZM7 2C6.44 2 6 2.45 6 3V7H2V3C2 2.45 1.55 2 1 2C0.44 2 0 2.45 0 3V13C0 13.55 0.45 14 1 14C1.56 14 2 13.55 2 13V9H6V13C6 13.55 6.45 14 7 14C7.56 14 8 13.55 8 13V3C8 2.46 7.55 2 7 2Z" fill="black"/>
</svg>
